svgs/duotone/hospital-user.svg

<svg xmlns="http://www.w3.org/2000/svg" viewBox="0 0 640 512"><!--! Font Awesome Pro 6.0.0-alpha3 by @fontawesome - https://fontawesome.com License - https://fontawesome.com/license (Commercial License) --><defs><style>.fa-secondary{opacity:.4}</style></defs><path class="fa-primary" d="M480 320c53.02 0 96-42.98 96-96s-42.98-96-96-96s-96 42.98-96 96S426.1 320 480 320zM512 352h-64c-70.69 0-128 57.3-128 128c0 17.67 14.33 32 32 32h256c17.67 0 32-14.33 32-32C640 409.3 582.7 352 512 352zM231.7 102.4H201.6V72.34c0-4.594-3.727-8.32-8.32-8.32H158.7c-4.594 0-8.32 3.727-8.32 8.32v30.08H120.3C115.7 102.4 112 106.1 112 110.7v34.56c0 4.594 3.727 8.32 8.32 8.32h30.08v30.08c0 4.594 3.727 8.32 8.32 8.32h34.56c4.594 0 8.32-3.727 8.32-8.32V153.6h30.08C236.3 153.6 240 149.9 240 145.3V110.7C240 106.1 236.3 102.4 231.7 102.4z"/><path class="fa-secondary" d="M352 352.6V48.01c0-26.51-21.49-48-48-48h-256c-26.51 0-48 21.49-48 48v432c0 17.67 14.33 32 32 32h264.9C291.4 502.6 288 491.7 288 480C288 427.9 313.3 381.8 352 352.6zM144 400c0 8.836-7.164 16-16 16H96c-8.836 0-16-7.164-16-16v-32c0-8.838 7.164-16 16-16h32c8.836 0 16 7.162 16 16V400zM144 304c0 8.836-7.164 16-16 16H96c-8.836 0-16-7.164-16-16v-32c0-8.838 7.164-16 16-16h32c8.836 0 16 7.162 16 16V304zM201.6 183.7c0 4.594-3.727 8.32-8.32 8.32H158.7c-4.594 0-8.32-3.727-8.32-8.32V153.6H120.3C115.7 153.6 112 149.9 112 145.3V110.7c0-4.594 3.727-8.32 8.32-8.32h30.08V72.34c0-4.594 3.727-8.32 8.32-8.32h34.56c4.594 0 8.32 3.727 8.32 8.32v30.08h30.08C236.3 102.4 240 106.1 240 110.7v34.56c0 4.594-3.727 8.32-8.32 8.32H201.6V183.7zM272 400c0 8.836-7.164 16-16 16H224c-8.836 0-16-7.164-16-16v-32c0-8.838 7.164-16 16-16h32c8.836 0 16 7.162 16 16V400zM272 304c0 8.836-7.164 16-16 16H224c-8.836 0-16-7.164-16-16v-32c0-8.838 7.164-16 16-16h32c8.836 0 16 7.162 16 16V304z"/></svg>

<svg xmlns="http://www.w3.org/2000/svg" viewBox="0 0 640 512"><!-- Font Awesome Pro 6.0.0-alpha2 by @fontawesome - https://fontawesome.com License - https://fontawesome.com/license (Commercial License) --><defs><style>.fa-secondary{opacity:.4}</style></defs><path d="M352 352.59V48.029C352 21.519 330.51 0.029 304 0.029H48C21.49 0.029 0 21.519 0 48.029V480.029C0 497.702 14.327 512.029 32 512.029H296.902C291.389 502.578 288 491.738 288 480.029C288 427.904 313.303 381.82 352 352.59ZM144 400.029C144 408.865 136.836 416.029 128 416.029H96C87.164 416.029 80 408.865 80 400.029V368.029C80 359.191 87.164 352.029 96 352.029H128C136.836 352.029 144 359.191 144 368.029V400.029ZM144 304.029C144 312.865 136.836 320.029 128 320.029H96C87.164 320.029 80 312.865 80 304.029V272.029C80 263.191 87.164 256.029 96 256.029H128C136.836 256.029 144 263.191 144 272.029V304.029ZM201.602 183.709C201.602 188.302 197.875 192.029 193.281 192.029H158.719C154.125 192.029 150.398 188.302 150.398 183.709V153.631H120.32C115.727 153.631 112 149.904 112 145.31V110.748C112 106.154 115.727 102.427 120.32 102.427H150.398V72.349C150.398 67.756 154.125 64.029 158.719 64.029H193.281C197.875 64.029 201.602 67.756 201.602 72.349V102.427H231.68C236.273 102.427 240 106.154 240 110.748V145.31C240 149.904 236.273 153.631 231.68 153.631H201.602V183.709ZM272 400.029C272 408.865 264.836 416.029 256 416.029H224C215.164 416.029 208 408.865 208 400.029V368.029C208 359.191 215.164 352.029 224 352.029H256C264.836 352.029 272 359.191 272 368.029V400.029ZM272 304.029C272 312.865 264.836 320.029 256 320.029H224C215.164 320.029 208 312.865 208 304.029V272.029C208 263.191 215.164 256.029 224 256.029H256C264.836 256.029 272 263.191 272 272.029V304.029Z" class="fa-secondary"/><path d="M480 320.029C533.02 320.029 576 277.049 576 224.029S533.02 128.029 480 128.029S384 171.01 384 224.029S426.98 320.029 480 320.029ZM512 352.029H448C377.307 352.029 320 409.334 320 480.029C320 497.701 334.326 512.029 352 512.029H608C625.674 512.029 640 497.701 640 480.029C640 409.334 582.693 352.029 512 352.029ZM231.68 102.428H201.602V72.35C201.602 67.756 197.875 64.029 193.281 64.029H158.719C154.125 64.029 150.398 67.756 150.398 72.35V102.428H120.32C115.727 102.428 112 106.154 112 110.748V145.311C112 149.904 115.727 153.631 120.32 153.631H150.398V183.709C150.398 188.303 154.125 192.029 158.719 192.029H193.281C197.875 192.029 201.602 188.303 201.602 183.709V153.631H231.68C236.273 153.631 240 149.904 240 145.311V110.748C240 106.154 236.273 102.428 231.68 102.428Z" class="fa-primary"/></svg>
